X:015
T:Boy in the Gap (reel) 
B:CRE3.101 (Buachaill sa Bhearna)
F:file ID: cre.3/015boy_g
N:1:Breathnach's notation for this tune is confusing: there's an "orphan" 
measure between the A and B parts, and the B part only has 7 measures. 
I've drafted this file on the presumption that the "orphan" should really 
be the first measure of part B.
N:2:I have taken the liberty of lowering the |c| in measures 2 and 6 from 
sharp to natural, since 99% of the time that a |cEGE| figure appears in a D 
tune, the |c| is natural. If you don't like the natural sound, delete the = 
in those two measures.
R:reel
L:1/8
Q:180
M:C
K:D
D2 (3FGA dedc|(3A=cA GE cEGE|D2 (3FGA dedc|(3AcA GF EFGE|
D2 (3FGA dedc|A2GE =cEGE|DEFA dedc|(3AcA GE EDD2:|
|:(3fgf fg ged2|e2fd edcB|ABcd e2dc|eaag eaag|
(3fga (3fga fedf|egfd edcB|ABcd e2dc|1 (3AcA GE EDD2:|\
[2 (3AcA GF EFGE|D8|]

%%%

